www/assets/icons/superscript.svg

<svg width="24" height="24" viewBox="0 0 24 24" xmlns="http://www.w3.org/2000/svg" fill='currentColor'><path d="M19.5599 7H17.5599V8H20.5599V9H16.5599V7C16.5599 6.45 17.0099 6 17.5599 6H19.5599V5H16.5599V4H19.5599C20.1099 4 20.5599 4.45 20.5599 5V6C20.5599 6.55 20.1099 7 19.5599 7ZM3.43994 20H6.09994L9.49994 14.58H9.61994L13.0199 20H15.6799L11.0299 12.73L15.3699 6H12.6899L9.61994 10.99H9.49994L6.40994 6H3.74994L8.06994 12.73L3.43994 20Z"/></svg>

<svg xmlns="http://www.w3.org/2000/svg" width="24" height="24" viewBox="0 0 24 24" fill='currentColor'><path d="M19.56 7h-2v1h3v1h-4V7c0-.55.45-1 1-1h2V5h-3V4h3c.55 0 1 .45 1 1v1c0 .55-.45 1-1 1M3.44 20H6.1l3.4-5.42h.12l3.4 5.42h2.66l-4.65-7.27L15.37 6h-2.68l-3.07 4.99H9.5L6.41 6H3.75l4.32 6.73z"/></svg>
